X: 11104
T: Duharra, The
R: reel
M: 4/4
K: Gmajor
|:dBB2 dBge|dcBG ABce|dBB2 gedB|AcBA BGGB|
dBB2 dBge|dgbg agef|g2gd egdB|1 AGAB GABc:|2 AGAB GABd||
|:g2ge dA(3Bcd|egg2 eaaf|g2ge dgbg|agab g2ga|
bgge agef|gfgd efge|dBBg gedB|1 AGAB GABd:|2 AGAB GABc||

